X:522
T: Das faule Gretchen (225c), S. 486
N: T0410
O: Luxemburg
S: Singendes Volk, Esch-Alzette, 1937 posth.]
N: Rodershausen, ? M. Dirkes, 1930,
N: mitgeteilt, hhh Josef Bour (Lehrer)
N: (226)- Consdorf, Liederheft, 1848-51
R: Berufslied]
M: 2/4
L: 1/16
K: G
D2 | G2G2G2G2 | G2G2G2
B2 | A2G2F2A2 | D4
d4 | B2B2B2B2 | B2d2d2
Bd | d2d2d2d2 | G4
A4 | B2B2F2F2 | G4z2

